X:14005
T:New Rigged Ship
R:Reel
C:Trad.
O:Scotland, Shetland
M:4/4
L:1/8
Q:1/4=150
K:Ador
eg|"Am"a2ab ageg|a2ab agef|"G"g2gg fgag|"D"f2d2 d2:|[K:Amix]
|:ed|"A"cAcA "E7"B2ed|"A"cAcA "(E7)"E2ed|"A"cAcA "E7"B2ed|"A"c2A2 A2:|[K:Ador]
|:AB|"Am"cdec "G"BcdB|"Am"ABAF "Em"GFE2|"Am"cdec "G"BcdB|"Am"c2A2 A2:|

